X: 161
T: May I Be There
C: Teton Sioux band 1911-1914
N: Derived from sioux156.krn
O: South Dakota, U.S.A.
N: Teton Sioux Music by Frances Densmore, 1918
Z: transcribed to **kern format by Craig Sapp
L: 1/8
M: 2/4
Q: 1/4=58
K: Bb clef=bass
%%linebreak <none>
F> FE2 [I:setbarnb 2]| 
F2D3/ F/ | 
F> FD2 | 
D< C B,3/ D/ | 
C2F D | 
D< C B,3/ D/ | 
C2D/ C/ B, | 
B,2F,3/ C/ | 
B,2C/ C/ B, | 
C< B, F,3/ F,/ | 
F,4 ||  
[M:3/4]F,2F,4 | 
D F E (F- F D) ||  
[M:2/4]E/< E/- E F D | 
(3(D C) C B,/ B,3/ | 
C< C F/ D3/ | 
(3(D C) C (B,3/ D/) | 
C2C/ C/ B, | 
B,2F,3/ C/ | 
B,2C/ C/ B, | 
(3C B, B, F,3/ F,/ ||  
[M:3/4]F,6 | 
F,2z4 |]  



